X: 2357
T: Baiji March, The
R: mazurka
M: 3/4
K: Dmajor
|:DE|F2 F>E DF|A2 AF DF|G2 GB AG|FG EF DE|
F3 E D/E/F|A2 AF D<E|F2 FG EF|1 D4:|2 D3||
|:A dc|B2 BA FG|A2 AF dc|B3 A dF|E3 A dc|
B>c BA E/F/G|A2 AF DE|F2 FG EF|1 D3:|2 D4||
|:de|
f2 f>e df|a2 af df|g2 gb ag|fg ef de|
f3 e d/e/f|a2 af d<e|f2 fg e<f|1 d4:|2 d3||
|:A dc|B3 A E/F/G|A2 AF dc|B2 BA dF|E3 A dc|
B>c BA FG|A>B AF D2|F3 G EF|1 D3:|2 D4||

